X:1
T:Title
%%score 1 2 3 4
L:1/8
M:2/2
K:C
V:1 treble nm="Part_1"
V:2 treble-8 nm="Part_2"
V:3 treble-8 nm="Part_3"
V:4 treble-8 nm="Part_4"
V:1
 z8 | z8 | z8 | z8 | F8 | A6 B2 | c4 c4- | c2 B2 A4 | G4 c4- | c4 B4 | c4 d4 | B8 | c8 | d8 | e8 | %15
 d8 | c4 c4- | c4 B4 | c8 | z8 | c8 | A8- | A4 B4- | B4 G4- | G4 A4- | A4 F4 | E4 A4- | A4 ^G4 | %28
 A8 | A4 G4- | G2 F2 F4- | F4 E4 | F8 | D8 | F6 ED | C4 F4- | F4 E4 | F8 | _B8 | A8 | G4 G4- | %41
 G4 F4 | G8 | A8 | =B8 | c8 | z4 c4 | B4 A4 | G4 c4 | B2 c2 e2 d2- | dc c4 B2 | c8 | z4 A4 | %53
 B4 c4 | B4 A2 F2 | G4 F4 | E2 C2 D4 | C4 F4 | G4 A4 | B2 c3 B A2- | A2 ^G2 A4 | G2 c4 B2 | %62
 c2 A2 B2 G2- | GF F4 E2 | F8- | F8 |] %66
V:2
 F8 | A6 B2 | c8 | F8 | z8 | f8 | e4 f4 | d2 e2 f4 | g4 g4- | g2 f2 d4 | e4 d4 | (3:2:2g4 f2 g4 | %12
 e2 f2 g4 | f2 a4 gf | e3 f e2 a2- | a2 gf g4 | a4 g4- | g2 e2 f2 g2 | e2 g4 fe | f2 a4 gf | %20
 e4 f4 | c4 f4- | f2 a2 g4- | g4 e4- | e4 A4- | A8 | c4 d4 | e8 | c4 d4 | e8- | e4 c4- | c8 | %32
 A4 F4 | G8 | A8- | A4 _B4 | c8 | A6 f2- | f2 ed e4 | f8 | _e4 d4- | d4 d4 | B2 e3 d d2- | %43
 d2 cB A4 | G4 d2 e2- | e2 c2 e4 | d2 e2 f4 | d2 e4 c2 | e2 d2 f4 | d2 c2 g4 | z2 g6 | e2 c4 f2- | %52
 f2 e2 f4 | d2 g3 f f2- | f2 e2 f4 | z8 | g2 f2 g4 | e2 f3 c f2- | f2 e2 f4 | z2 c2 f2 e2- | %60
 e4 c2 d2 | e2 g4 g2 | e4 d2 _e2- | e2 c4 c2 | A6 _B2 | c8 |] %66
V:3
 z8 | z8 | F8 | A6 B2 | c8 | z4 c4- | c2 B2 A4 | G4 (3:2:1c6- | (3:2:2c2 B4 c4 | d8 | c4 B4 | d8 | %12
 c8 | z8 | c8 | d8 | e8 | d8 | c4 c4- | c4 B4 | c8 | f8 | d8 | e8 | c8 | d8 | c4 A4 | B8 | A8 | %29
 c8 | B4 A4 | G8 | F8 | z8 | D8 | F8 | G8 | F8 | z8 | z8 | _B8 | A8 | G4 G4- | G4 F4 | G8 | A8 | %46
 =B4 c4 | z4 c4 | B4 A4 | G2 c4 B2 | c2 e2 d4 | c4 A4 | B4 c4 | B2 G2 A4 | G4 F4 | E2 C2 D4 | %56
 C2 c4 B2 | c4 A4 | G4 F4 | G2 A4 c2 | B4 A4 | c2 e2 d4 | c4 _B4 | c2 A2 G4 | F8- | F8 |] %66
V:4
 z8 | F8 | A6 B2 | c8 | F8- | F8 | z4 F4 | G4 F4 | E4 C4 | G8 | C4 G4- | G8 | A2 F2 E4 | D8 | A8 | %15
 _B8 | A4 c4 | G8 | C4 E4 | D8 | C4 F4- | F2 F2 F4 | z4 G4 | E8- | E4 F4 | D8 | A4 F4 | E8 | %28
 F4 D4 | C4 E4- | E4 F4 | C8 | c8 | (3:2:2_B8 A4 | F8- | F4 D4 | C8 | c4 A4 | G8 | F8 | G8 | D8 | %42
 z4 G4 | D8 | z8 | z8 | G4 F4 | G4 A4 | E2 G4 F2 | G2 C4 G2 | A2 c2 G4 | C4 F2 A2 | G4 F4 | %53
 z4 c2 A2 | B4 c2 A2 | G2 c4 B2 | c2 A2 G4 | C2 F4 F2 | C4 c2 A2 | G2 F4 A2 | E4 z2 F2 | E2 C2 G4 | %62
 C4 G2 _E2- | E2 F2 C4 | c8- | c8 |] %66

